svgs/survivalmanual.svg

<svg xmlns="http://www.w3.org/2000/svg" viewBox="0 0 192 192"><path d="M24.51 24.44v142.917a8.136 8.136 0 0 0 2.318 5.687 8.17 8.17 0 0 0 5.639 2.456h9.711v-159h-9.711a8.17 8.17 0 0 0-5.569 2.383 8.136 8.136 0 0 0-2.388 5.557Zm59.249 99.064a27.71 27.71 0 0 1-17.25-6.022 27.604 27.604 0 0 1-9.722-15.441 27.553 27.553 0 0 1 2.046-18.121 27.637 27.637 0 0 1 12.922-12.894 27.727 27.727 0 0 1 18.16-2.042 27.68 27.68 0 0 1 15.473 9.702 27.576 27.576 0 0 1 6.036 17.212 27.628 27.628 0 0 1-8.115 19.509 27.741 27.741 0 0 1-19.55 8.097Z" fill="none" stroke="#000" stroke-width="8" stroke-linecap="round" stroke-linejoin="round"/><path d="m96 82.706-16.322 7.777a3.055 3.055 0 0 0-1.346 1.343l-7.753 16.287a.731.731 0 0 0 .652 1.039.703.703 0 0 0 .286-.061l16.322-7.777a3.387 3.387 0 0 0 1.51-1.507l7.794-16.287a.775.775 0 0 0-.449-.936.695.695 0 0 0-.694.122Z" fill="none" stroke="#000" stroke-width="8" stroke-linecap="round" stroke-linejoin="round"/><path d="M83.759 98.952a3.06 3.06 0 0 1-2.984-2.374 3.055 3.055 0 0 1 3.665-3.657 3.061 3.061 0 0 1 2.379 2.977 3.095 3.095 0 0 1-3.06 3.054Zm50.108 0a3.063 3.063 0 0 1-3.085-2.286 3.047 3.047 0 0 1 1.586-3.493 3.067 3.067 0 0 1 3.757.808c.439.543.679 1.22.68 1.917 0 .81-.323 1.587-.897 2.16a3.064 3.064 0 0 1-2.164.894Z"/><path d="M151.821 116.257h4.652a11.073 11.073 0 0 0 7.778-3.232 11.03 11.03 0 0 0 3.239-7.762V86.452a11.028 11.028 0 0 0-3.267-7.709 11.07 11.07 0 0 0-7.75-3.203h-4.652v-51.1a8.137 8.137 0 0 0-2.461-5.627 8.171 8.171 0 0 0-5.7-2.313H42.178v158.796h101.686a8.171 8.171 0 0 0 5.771-2.385 8.135 8.135 0 0 0 2.39-5.758Z" fill="none" stroke="#000" stroke-width="8" stroke-linecap="round" stroke-linejoin="round"/><path d="M133.867 108.113a12.261 12.261 0 0 1-8.656-3.577 12.207 12.207 0 0 1-3.586-8.638c0-3.238 1.291-6.347 3.586-8.637a12.258 12.258 0 0 1 8.656-3.578h17.954v24.43Z" fill="none" stroke="#000" stroke-width="8" stroke-linecap="round" stroke-linejoin="round"/></svg>

<svg
    xmlns="http://www.w3.org/2000/svg"
    viewBox="0 0 192 192"
    id="vector">
    <path
        id="path"
        d="M 24.51 24.44 L 24.51 167.357 C 24.509 169.481 25.342 171.523 26.828 173.044 C 28.314 174.565 30.339 175.447 32.467 175.5 L 42.178 175.5 L 42.178 16.5 L 32.467 16.5 C 30.374 16.552 28.378 17.405 26.898 18.883 C 25.417 20.36 24.562 22.351 24.51 24.44 Z M 83.759 123.504 C 77.492 123.504 71.408 121.38 66.509 117.482 C 61.61 113.583 58.181 108.137 56.787 102.041 C 55.392 95.945 56.114 89.554 58.833 83.92 C 61.551 78.287 66.109 73.739 71.755 71.026 C 77.4 68.313 83.806 67.593 89.915 68.984 C 96.024 70.376 101.482 73.798 105.388 78.686 C 109.295 83.575 111.424 89.646 111.424 95.898 C 111.413 103.214 108.493 110.234 103.309 115.407 C 98.125 120.58 91.09 123.494 83.759 123.504 Z"
        fill="none"
        stroke="#000000"
        stroke-width="8"
        stroke-linecap="round"
        stroke-linejoin="round"/>
    <path
        id="path_1"
        d="M 96 82.706 L 79.678 90.483 C 79.098 90.776 78.626 91.247 78.332 91.826 L 70.579 108.113 C 70.524 108.231 70.502 108.361 70.514 108.49 C 70.526 108.62 70.573 108.743 70.649 108.849 C 70.724 108.954 70.827 109.038 70.946 109.091 C 71.036 109.131 71.133 109.152 71.231 109.152 C 71.33 109.152 71.427 109.131 71.517 109.091 L 87.839 101.314 C 88.492 100.987 89.022 100.458 89.349 99.807 L 97.143 83.52 C 97.197 83.336 97.182 83.139 97.099 82.966 C 97.016 82.793 96.871 82.657 96.694 82.584 C 96.578 82.54 96.452 82.529 96.33 82.55 C 96.208 82.572 96.094 82.626 96 82.706 Z"
        fill="none"
        stroke="#000000"
        stroke-width="8"
        stroke-linecap="round"
        stroke-linejoin="round"/>
    <path
        id="path_2"
        d="M 83.759 98.952 C 83.065 98.952 82.392 98.717 81.85 98.286 C 81.309 97.854 80.929 97.252 80.775 96.578 C 80.621 95.903 80.701 95.196 81.001 94.573 C 81.302 93.95 81.806 93.447 82.431 93.147 C 83.055 92.847 83.764 92.767 84.44 92.921 C 85.115 93.075 85.719 93.453 86.151 93.994 C 86.583 94.535 86.819 95.207 86.819 95.898 C 86.808 96.705 86.482 97.476 85.911 98.046 C 85.339 98.616 84.567 98.941 83.759 98.952 Z M 133.867 98.952 C 133.168 98.98 132.481 98.768 131.92 98.352 C 131.359 97.936 130.957 97.341 130.782 96.666 C 130.607 95.99 130.668 95.275 130.957 94.64 C 131.246 94.005 131.744 93.487 132.368 93.173 C 132.993 92.859 133.706 92.768 134.39 92.915 C 135.073 93.063 135.686 93.439 136.125 93.981 C 136.564 94.524 136.804 95.201 136.805 95.898 C 136.805 96.708 136.482 97.485 135.908 98.058 C 135.335 98.63 134.556 98.952 133.744 98.952 Z"
        fill="#000000"
        stroke-width="1"/>
    <path
        id="path_3"
        d="M 151.821 116.257 L 156.473 116.257 C 159.39 116.246 162.188 115.084 164.251 113.025 C 166.314 110.966 167.479 108.174 167.49 105.263 L 167.49 86.452 C 167.458 83.555 166.283 80.784 164.223 78.743 C 162.162 76.701 159.376 75.55 156.473 75.54 L 151.821 75.54 L 151.821 24.44 C 151.768 22.316 150.884 20.296 149.36 18.813 C 147.836 17.33 145.789 16.499 143.66 16.5 L 42.178 16.5 L 42.178 175.296 L 143.864 175.296 C 146.028 175.296 148.105 174.438 149.635 172.911 C 151.165 171.385 152.025 169.312 152.025 167.153 Z"
        fill="none"
        stroke="#000000"
        stroke-width="8"
        stroke-linecap="round"
        stroke-linejoin="round"/>
    <path
        id="path_4"
        d="M 133.867 108.113 C 130.621 108.113 127.506 106.825 125.211 104.536 C 122.916 102.246 121.625 99.137 121.625 95.898 C 121.625 92.66 122.916 89.551 125.211 87.261 C 127.506 84.971 130.621 83.683 133.867 83.683 L 151.821 83.683 L 151.821 108.113 Z"
        fill="none"
        stroke="#000000"
        stroke-width="8"
        stroke-linecap="round"
        stroke-linejoin="round"/>
</svg>
